X: 1
T:B204-  The hunt is up
M:6/8
L:1/8
Q:1/4=120
S:(1st/2) Simpson C.M. The British Broadside Ballad and its Music (1966)
B:http://users.erols.com/olsonw/BM2.HTM
K:Dphrygian
zB,C DEF|zB,C DEF|zGFE2D|CC2C2C|\
GG2G2G|FF2F2F|FED zDz|(D3D3)|]
